Catalina-light/actions/16/sidebar-places-symbolic.svg

<?xml version="1.0" encoding="UTF-8" standalone="no"?>
<svg
   xmlns:dc="http://purl.org/dc/elements/1.1/"
   xmlns:cc="http://creativecommons.org/ns#"
   xmlns:rdf="http://www.w3.org/1999/02/22-rdf-syntax-ns#"
   xmlns:svg="http://www.w3.org/2000/svg"
   xmlns="http://www.w3.org/2000/svg"
   xmlns:sodipodi="http://sodipodi.sourceforge.net/DTD/sodipodi-0.dtd"
   xmlns:inkscape="http://www.inkscape.org/namespaces/inkscape"
   viewBox="0 0 16 16"
   id="svg3313"
   version="1.1"
   inkscape:version="0.91 r13725"
   sodipodi:docname="sidebar-places-symbolic.svg">
  <metadata
     id="metadata3321">
    <rdf:RDF>
      <cc:Work
         rdf:about="">
        <dc:format>image/svg+xml</dc:format>
        <dc:type
           rdf:resource="http://purl.org/dc/dcmitype/StillImage" />
      </cc:Work>
    </rdf:RDF>
  </metadata>
  <sodipodi:namedview
     pagecolor="#ffffff"
     bordercolor="#666666"
     borderopacity="1"
     objecttolerance="10"
     gridtolerance="10"
     guidetolerance="10"
     inkscape:pageopacity="0"
     inkscape:pageshadow="2"
     inkscape:window-width="640"
     inkscape:window-height="480"
     id="namedview3319"
     showgrid="false"
     inkscape:zoom="13.002901"
     inkscape:cx="8.5122194"
     inkscape:cy="-2.7622138"
     inkscape:current-layer="svg3313" />
  <defs
     id="defs3051">
    <style
       type="text/css"
       id="current-color-scheme">
      .ColorScheme-Text {
        color:#bebebe;
      }
      </style>
  </defs>
  <path
     style="color:#bebebe;fill:currentColor;fill-opacity:1;stroke:none"
     class="ColorScheme-Text"
     d="M 2.2159598,3.500748 C 2.096176,3.500748 2,3.5962233 2,3.7151345 L 2,12.4734 14,12.5 14,4.9831809 C 14,4.8642608 13.903824,4.7671236 13.78404,4.7671236 l -6.5055802,0 C 7.0580788,4.7864714 7.0291026,4.7585321 6.9202009,4.6142279 6.7657677,4.409055 6.5331734,3.8554435 6.3811384,3.6553057 6.2591068,3.4800797 6.2386577,3.500748 6.0362723,3.500748 l -3.8203125,0 z"
     id="path3317"
     inkscape:connector-curvature="0" />
</svg>

<svg version="1.1" viewBox="0 0 16 16" xmlns="http://www.w3.org/2000/svg">
<defs>
<style id="current-color-scheme" type="text/css">.ColorScheme-Text {
        color:#363636;
      }</style>
</defs>
<path class="ColorScheme-Text" d="m2.216 3.5007c-0.11978 0-0.21596 0.095475-0.21596 0.21439v8.7583l12 0.0266v-7.5168c0-0.11892-0.096176-0.21606-0.21596-0.21606h-6.5056c-0.22038 0.019348-0.24936-0.0085915-0.35826-0.1529-0.15443-0.20517-0.38703-0.75878-0.53906-0.95892-0.12203-0.17523-0.14248-0.15456-0.34487-0.15456h-3.8203z" color="#363636" fill="#363636"/>
</svg>
